sources/resources/icons/32/misc/question.svg

<svg viewBox="0 0 32 32" xmlns="http://www.w3.org/2000/svg"><path d="m12.5 12.8c-0.414 0-0.75-0.337-0.75-0.751 0 0 6e-4 -0.0413 0.0014-0.0619 0.0013-0.0323 0.0036-0.0756 8e-3 -0.128 0.0088-0.105 0.0258-0.25 0.0591-0.421 0.0659-0.339 0.199-0.799 0.471-1.27 0.573-0.983 1.7-1.87 3.71-1.87 1.4 0 2.51 0.426 3.24 1.25 0.727 0.808 1 1.89 1 3 0 1.89-1.15 2.83-2.06 3.49-0.106 0.0758-0.206 0.146-0.3 0.212-0.336 0.235-0.597 0.419-0.808 0.63-0.236 0.236-0.327 0.431-0.327 0.673v1.5c0 0.414-0.336 0.751-0.75 0.751s-0.75-0.336-0.75-0.75v-1.5c0-0.758 0.346-1.31 0.766-1.73 0.314-0.314 0.717-0.595 1.07-0.839l1e-3 -7e-4c0.0802-0.056 0.158-0.11 0.23-0.162 0.836-0.597 1.44-1.15 1.44-2.26 0-0.886-0.222-1.56-0.62-2-0.385-0.428-1.03-0.752-2.13-0.752-1.49 0-2.11 0.61-2.41 1.13-0.165 0.283-0.251 0.573-0.294 0.796-0.0214 0.11-0.0318 0.2-0.0367 0.259-0.0024 0.0292-0.0035 0.0504-0.0039 0.0621l-3e-4 0.0097c-0.0028 0.412-0.338 0.745-0.75 0.745z" fill="#000"/><path d="m17 23c0 0.552-0.448 1-1 1s-1-0.448-1-1 0.448-1 1-1 1 0.448 1 1z" fill="#000"/><path d="m32 16c0 8.84-7.16 16-16 16-8.84 0-16-7.16-16-16 0-8.84 7.16-16 16-16 8.84 0 16 7.16 16 16zm-1 0c0 8.28-6.72 15-15 15-8.28 0-15-6.72-15-15 0-8.28 6.72-15 15-15 8.28 0 15 6.72 15 15z" clip-rule="evenodd" fill="#000" fill-rule="evenodd"/></svg>

<svg width="32" height="32" viewBox="0 0 32 32" fill="none" xmlns="http://www.w3.org/2000/svg">
<path d="M12.5 12.75C12.0858 12.75 11.75 12.4133 11.75 11.9991C11.75 11.9991 11.7506 11.9578 11.7514 11.9372C11.7527 11.9049 11.755 11.8616 11.7594 11.8088C11.7682 11.7035 11.7852 11.559 11.8185 11.3881C11.8844 11.0491 12.0174 10.5889 12.2897 10.1221C12.8629 9.13948 13.9858 8.25 16 8.25C17.404 8.25 18.5053 8.6764 19.245 9.49828C19.9719 10.3059 20.25 11.3857 20.25 12.5C20.25 14.3869 19.0996 15.3327 18.1859 15.9853C18.0799 16.0611 17.9796 16.1314 17.8856 16.1973C17.55 16.4326 17.2883 16.6161 17.0772 16.8272C16.8414 17.063 16.75 17.2582 16.75 17.5V18.9994C16.75 19.4137 16.4142 19.75 16 19.75C15.5858 19.75 15.25 19.4142 15.25 19V17.5C15.25 16.7418 15.5961 16.187 16.0165 15.7665C16.3301 15.453 16.7336 15.1712 17.0828 14.9274L17.0838 14.9267C17.164 14.8707 17.2413 14.8167 17.3141 14.7647C18.1504 14.1673 18.75 13.6131 18.75 12.5C18.75 11.6143 18.5281 10.9441 18.13 10.5017C17.7447 10.0736 17.096 9.75 16 9.75C14.5142 9.75 13.8871 10.3605 13.5853 10.8779C13.4201 11.1611 13.3344 11.4509 13.2909 11.6744C13.2695 11.7847 13.2591 11.8746 13.2542 11.9334C13.2518 11.9626 13.2507 11.9838 13.2503 11.9955L13.25 12.0052C13.2472 12.417 12.9125 12.75 12.5 12.75Z" fill="white"/>
<path d="M17 23C17 23.5523 16.5523 24 16 24C15.4477 24 15 23.5523 15 23C15 22.4477 15.4477 22 16 22C16.5523 22 17 22.4477 17 23Z" fill="white"/>
<path fill-rule="evenodd" clip-rule="evenodd" d="M32 16C32 24.8366 24.8366 32 16 32C7.16344 32 0 24.8366 0 16C0 7.16344 7.16344 0 16 0C24.8366 0 32 7.16344 32 16ZM31 16C31 24.2843 24.2843 31 16 31C7.71573 31 1 24.2843 1 16C1 7.71573 7.71573 1 16 1C24.2843 1 31 7.71573 31 16Z" fill="white"/>
</svg>
